icons/badge/x/square.svg

<svg width="32" height="32" viewBox="0 0 32 32" fill="none" xmlns="http://www.w3.org/2000/svg">
<path fill-rule="evenodd" clip-rule="evenodd" d="M2.66675 4.66669C2.66675 3.56212 3.56218 2.66669 4.66675 2.66669H27.3334C28.438 2.66669 29.3334 3.56212 29.3334 4.66669V27.3334C29.3334 28.4379 28.438 29.3334 27.3334 29.3334H4.66675C3.56218 29.3334 2.66675 28.4379 2.66675 27.3334V4.66669ZM27.3334 4.66669L4.66675 4.66669V27.3334H27.3334V4.66669ZM17.4142 16L21.7071 11.7071L20.2929 10.2929L16 14.5858L11.7071 10.2929L10.2929 11.7071L14.5858 16L10.2929 20.2929L11.7071 21.7071L16 17.4142L20.2929 21.7071L21.7071 20.2929L17.4142 16Z" fill="black"/>
</svg>

<svg width="32" height="32" viewBox="0 0 32 32" xmlns="http://www.w3.org/2000/svg">
    <path fill-rule="evenodd" d="M2.667 4.667a2 2 0 012-2h22.666a2 2 0 012 2v22.666a2 2 0 01-2 2H4.667a2 2 0 01-2-2V4.667zm24.666 0H4.667v22.666h22.666V4.667zM17.414 16l4.293-4.293-1.414-1.414L16 14.586l-4.293-4.293-1.414 1.414L14.586 16l-4.293 4.293 1.414 1.414L16 17.414l4.293 4.293 1.414-1.414L17.414 16z"/>
</svg>
